PortableApps/LibreOfficePortable/App/libreoffice/help/media/icon-themes/cmd/sc_showdependents.svg

<svg viewBox="0 0 16 16" xmlns="http://www.w3.org/2000/svg"><path d="m9 0v1h1 1 4v4h-3v1h4v-6zm-9 5v6h5.8789062l-1-1h-3.8789062v-4h3.8789062l1-1zm12 5v1h3v4h-4-1-1v1h7v-6z" fill="#808080"/><path d="m11 1c.552262.0000552.999945.4477381 1 1v3h3v-4zm-10 5v4h3.8789062l-.4277343-.4277344c-.4234525-.4098219-.5136912-1.0423005-.3515625-1.5410156-.001819-.00475-.0099488-.0050056-.0117188-.0097656-.00255-.006882.0082994-.0145444.0058594-.0214844.00244-.00694-.0084094-.0146044-.0058594-.0214844.001769-.00477.0098988-.0050156.0117188-.0097656-.1621287-.4987151-.0718903-1.1311937.3515625-1.5410156l.4277343-.4277344zm11 5v3c-.000055.552262-.447738.999945-1 1h4v-4z" fill="#fff"/><path d="m7 2 1.6464844 1.6464844-3.5 3.5c-.3128385.3027683-.1126486.8210678.3085937.8535156-.4212423.0324478-.6214322.5507473-.3085937.8535156l3.5 3.5000004-1.6464844 1.646484h4v-4l-1.6464844 1.646484-3.5-3.4999996c-.0871442-.0900673-.2057156-.1389222-.3300781-.1464844.1243625-.0075622.2429339-.0564171.3300781-.1464844l3.5-3.5 1.6464844 1.6464844v-4z" fill="#4d82b8"/></svg>

<svg viewBox="0 0 16 16" xmlns="http://www.w3.org/2000/svg">
  <path
     style="fill:#808080"
     d="m 9,0 v 1 h 1 1 4 v 4 h -3 v 1 h 4 V 0 Z M 0,5 v 6 h 5.8789062 l -1,-1 H 1 V 6 h 3.8789062 l 1,-1 z m 12,5 v 1 h 3 v 4 H 11 10 9 v 1 h 7 v -6 z"
     />
  <path
     style="fill:#ffffff"
     d="M 11 1 C 11.552262 1.0000552 11.999945 1.4477381 12 2 L 12 5 L 15 5 L 15 1 L 11 1 z M 1 6 L 1 10 L 4.8789062 10 L 4.4511719 9.5722656 C 4.0277194 9.1624437 3.9374807 8.5299651 4.0996094 8.03125 C 4.0977904 8.0265 4.0896606 8.0262444 4.0878906 8.0214844 C 4.0853406 8.0146024 4.09619 8.00694 4.09375 8 C 4.09619 7.99306 4.0853406 7.9853956 4.0878906 7.9785156 C 4.0896596 7.9737456 4.0977894 7.9735 4.0996094 7.96875 C 3.9374807 7.4700349 4.0277191 6.8375563 4.4511719 6.4277344 L 4.8789062 6 L 1 6 z M 12 11 L 12 14 C 11.999945 14.552262 11.552262 14.999945 11 15 L 15 15 L 15 11 L 12 11 z " />
  <path
     style="fill:#4d82b8"
     d="M 7 2 L 8.6464844 3.6464844 L 5.1464844 7.1464844 C 4.8336459 7.4492527 5.0338358 7.9675522 5.4550781 8 C 5.0338358 8.0324478 4.8336459 8.5507473 5.1464844 8.8535156 L 8.6464844 12.353516 L 7 14 L 11 14 L 11 10 L 9.3535156 11.646484 L 5.8535156 8.1464844 C 5.7663714 8.0564171 5.6478 8.0075622 5.5234375 8 C 5.6478 7.9924378 5.7663714 7.9435829 5.8535156 7.8535156 L 9.3535156 4.3535156 L 11 6 L 11 2 L 7 2 z " />
</svg>
